X:113
T:Quick Step
R:Reel
S:Adaptations and guitar chords by Robin Shaylor 2002
M:4/4
L:1/8
Q:116
K:F
AG |"F" F2 f4 ed |   c2 A2 F2 GA | "Gm" B2 A2      G2 F2 | "C7" FEGE C2DE |!
"F" F2 f4 ed | "Gm" d2 G2 G2 cB | "F"  A2 F2 "C7" AGFE  | "F"  F4   F2 |!
|: EF |"C" G2 G2 GFEF   | G4         C4   | "F"  F2 A2 "A7" d2 ^c2 | "Dm" d4 d2 ef |!
"F" c2 f2 A2 c2  | F2 Ac "Dm" dcBA | "Gm" BAGF  "C7" EFGE   | "F"  F4 F2:|!
|: AG |"F" F2 F2 F2 EF  | "C"  G2 G2 G2 CE |"F"  F2 A2 "A7" d2 ^c2 | "Dm" d4 d2 ef |!
"F" =c2 A2 A2 Bc | "Gm" d2 G2 G2 dc | "C7" BAGF      EFGE    | "F"  F4 F2   :|
